src/images/documents/svg/text.svg

<svg fill="none" height="120" viewBox="0 0 80 120" width="80" xmlns="http://www.w3.org/2000/svg"><path d="m1 119v-118h58.5858l19.4142 19.4142v98.5858z" fill="#fff" stroke="#0065bd" stroke-width="2"/><g fill="#0065bd"><path d="m80 20-20-20v20z"/><path d="m10 60h59.9997v5h-59.9997z"/><path d="m10 70h59.9997v5h-59.9997z"/><path d="m10 80h30v5h-30z"/><path d="m10 28h60v27h-60z"/></g><path d="m29.5068 35.5586v12.4414h-2.5549v-12.4414zm3.8282 0v2.0081h-10.1514v-2.0081zm4.7595 12.6123c-.7178 0-1.3615-.1139-1.9312-.3418-.5696-.2336-1.0538-.5554-1.4526-.9656-.3931-.4101-.695-.8858-.9058-1.427-.2107-.5469-.3161-1.1279-.3161-1.7431v-.3418c0-.7007.0997-1.3416.299-1.9226.1994-.5811.4843-1.0852.8545-1.5125.376-.4272.8317-.7548 1.3672-.9827.5355-.2335 1.1393-.3503 1.8115-.3503.6552 0 1.2362.1082 1.7432.3247s.9314.5241 1.2732.9229c.3475.3987.6095.8772.7861 1.4355.1766.5526.2649 1.1678.2649 1.8457v1.0254h-7.3486v-1.6406h4.9304v-.188c0-.3418-.0626-.6466-.188-.9143-.1196-.2735-.3019-.4899-.5468-.6494-.245-.1595-.5583-.2393-.94-.2393-.3247 0-.6038.0712-.8374.2136s-.4244.3418-.5725.5982c-.1424.2563-.2507.5582-.3247.9057-.0684.3418-.1025.7178-.1025 1.128v.3418c0 .3702.0512.712.1538 1.0254.1082.3133.2592.5839.4528.8117.1994.2279.4387.4045.7178.5298.2848.1253.6067.188.9656.188.4443 0 .8573-.0855 1.239-.2564.3874-.1766.7206-.4414.9998-.7946l1.1962 1.2988c-.1936.2791-.4585.5469-.7946.8032-.3304.2564-.7292.4671-1.1963.6323-.4671.1595-.9998.2393-1.5979.2393zm7.1777-9.4165 1.5296 2.8113 1.5722-2.8113h2.6233l-2.6147 4.5203 2.7343 4.7253h-2.6318l-1.6663-2.9736-1.6662 2.9736h-2.6318l2.7343-4.7253-2.6147-4.5203zm11.4502 0v1.7432h-5.3833v-1.7432zm-4.0503-2.2815h2.461v8.7415c0 .2677.0341.4728.1025.6152.0741.1424.1823.2421.3247.2991.1424.0512.3219.0769.5383.0769.1538 0 .2906-.0057.4102-.0171.1253-.0171.2307-.0342.3162-.0513l.0085 1.8115c-.2108.0684-.4386.1225-.6836.1624s-.5155.0598-.8118.0598c-.5411 0-1.014-.0883-1.4184-.2649-.3988-.1823-.7064-.4728-.9229-.8716-.2164-.3987-.3247-.9228-.3247-1.5722z" fill="#fff"/></svg>

<svg width="80" height="120" viewBox="0 0 80 120" fill="none" xmlns="http://www.w3.org/2000/svg">
<path d="M1.00098 119V1H59.5868L79.001 20.4142V119H1.00098Z" fill="white" stroke="#0065BD" stroke-width="2"/>
<path d="M80.001 20L60.001 0V20H80.001Z" fill="#0065BD"/>
<rect x="10.0015" y="60" width="59.9997" height="5" fill="#0065BD"/>
<rect x="10.0015" y="70" width="59.9997" height="5" fill="#0065BD"/>
<rect x="10.0015" y="80" width="30" height="5" fill="#0065BD"/>
<rect x="10.0015" y="28" width="60" height="27" fill="#0065BD"/>
<path d="M29.5083 35.5586V48H26.9534V35.5586H29.5083ZM33.3364 35.5586V37.5667H23.1851V35.5586H33.3364ZM38.0959 48.1709C37.3782 48.1709 36.7345 48.057 36.1648 47.8291C35.5951 47.5955 35.1109 47.2737 34.7122 46.8635C34.3191 46.4534 34.0172 45.9777 33.8064 45.4365C33.5956 44.8896 33.4902 44.3086 33.4902 43.6934V43.3516C33.4902 42.6509 33.5899 42.01 33.7893 41.429C33.9887 40.8479 34.2735 40.3438 34.6438 39.9165C35.0198 39.4893 35.4755 39.1617 36.011 38.9338C36.5465 38.7003 37.1503 38.5835 37.8225 38.5835C38.4776 38.5835 39.0587 38.6917 39.5657 38.9082C40.0727 39.1247 40.4971 39.4323 40.8389 39.8311C41.1864 40.2298 41.4484 40.7083 41.625 41.2666C41.8016 41.8192 41.8899 42.4344 41.8899 43.1123V44.1377H34.5413V42.4971H39.4717V42.3091C39.4717 41.9673 39.409 41.6625 39.2837 41.3948C39.1641 41.1213 38.9818 40.9049 38.7368 40.7454C38.4919 40.5859 38.1785 40.5061 37.7969 40.5061C37.4722 40.5061 37.193 40.5773 36.9595 40.7197C36.7259 40.8621 36.5351 41.0615 36.387 41.3179C36.2445 41.5742 36.1363 41.8761 36.0623 42.2236C35.9939 42.5654 35.9597 42.9414 35.9597 43.3516V43.6934C35.9597 44.0636 36.011 44.4054 36.1135 44.7188C36.2218 45.0321 36.3727 45.3027 36.5664 45.5305C36.7658 45.7584 37.005 45.935 37.2842 46.0603C37.569 46.1856 37.8909 46.2483 38.2498 46.2483C38.6941 46.2483 39.1071 46.1628 39.4888 45.9919C39.8761 45.8153 40.2094 45.5505 40.4885 45.1973L41.6848 46.4961C41.4911 46.7752 41.2262 47.043 40.8901 47.2993C40.5597 47.5557 40.161 47.7664 39.6938 47.9316C39.2267 48.0911 38.6941 48.1709 38.0959 48.1709ZM45.2737 38.7544L46.8032 41.5657L48.3755 38.7544H50.9988L48.384 43.2747L51.1184 48H48.4866L46.8203 45.0264L45.1541 48H42.5222L45.2566 43.2747L42.6418 38.7544H45.2737ZM56.7239 38.7544V40.4976H51.3406V38.7544H56.7239ZM52.6736 36.4729H55.1345V45.2144C55.1345 45.4821 55.1687 45.6872 55.2371 45.8296C55.3111 45.972 55.4194 46.0717 55.5618 46.1287C55.7042 46.1799 55.8836 46.2056 56.1001 46.2056C56.2539 46.2056 56.3906 46.1999 56.5103 46.1885C56.6356 46.1714 56.741 46.1543 56.8264 46.1372L56.835 47.9487C56.6242 48.0171 56.3963 48.0712 56.1514 48.1111C55.9064 48.151 55.6358 48.1709 55.3396 48.1709C54.7984 48.1709 54.3256 48.0826 53.9211 47.906C53.5224 47.7237 53.2148 47.4332 52.9983 47.0344C52.7818 46.6357 52.6736 46.1116 52.6736 45.4622V36.4729Z" fill="white"/>
</svg>
